src/raw/gas-diesel/icon_32.svg

<svg width="32" height="32" viewBox="0 0 32 32" fill="none" xmlns="http://www.w3.org/2000/svg">
<path d="M19.6667 1H2.33333C1.59695 1 1 1.59695 1 2.33333V29.6667C1 30.403 1.59695 31 2.33333 31H19.6667C20.403 31 21 30.403 21 29.6667V2.33333C21 1.59695 20.403 1 19.6667 1Z" stroke="#71717A" stroke-width="1.5" stroke-linecap="round" stroke-linejoin="round"/>
<path d="M14.6667 20.4445C14.6667 21.3874 14.3155 22.2918 13.6904 22.9586C13.0652 23.6254 12.2174 24 11.3333 24C10.4493 24 9.60143 23.6254 8.97631 22.9586C8.35119 22.2918 8 21.3874 8 20.4445C8 18.4806 11.3333 13.3333 11.3333 13.3333C11.3333 13.3333 14.6667 18.4806 14.6667 20.4445Z" stroke="#71717A" stroke-width="1.5" stroke-linecap="round" stroke-linejoin="round"/>
<path d="M30.9997 12L30.109 13.3333C29.3855 14.4193 28.9995 15.6951 28.9997 17V29C28.9997 29.5304 28.789 30.0391 28.4139 30.4142C28.0388 30.7893 27.5301 31 26.9997 31C26.4692 31 25.9605 30.7893 25.5855 30.4142C25.2104 30.0391 24.9997 29.5304 24.9997 29V9C24.9997 8.46957 24.789 7.96086 24.4139 7.58579C24.0388 7.21071 23.5301 7 22.9997 7H20.9997H1.33301" stroke="#71717A" stroke-width="1.5" stroke-linecap="round" stroke-linejoin="round"/>
<path d="M29 17H31" stroke="#71717A" stroke-width="1.5" stroke-linecap="round" stroke-linejoin="round"/>
</svg>

<svg xmlns="http://www.w3.org/2000/svg" width="32" height="32" fill="none" viewBox="0 0 32 32">
  <path stroke="#3F3F46" stroke-linecap="round" stroke-linejoin="round" stroke-width="2"
    d="M19.667 1H2.334C1.597 1 1 1.597 1 2.333v27.334C1 30.403 1.597 31 2.334 31h17.333c.736 0 1.333-.597 1.333-1.333V2.333C21 1.597 20.404 1 19.668 1Z" />
  <path stroke="#3F3F46" stroke-linecap="round" stroke-linejoin="round" stroke-width="2"
    d="M14.667 20.444c0 .943-.351 1.848-.976 2.515a3.231 3.231 0 0 1-2.357 1.04 3.231 3.231 0 0 1-2.357-1.04A3.68 3.68 0 0 1 8 20.444c0-1.963 3.334-7.11 3.334-7.11s3.333 5.146 3.333 7.11Z" />
  <path stroke="#3F3F46" stroke-linecap="round" stroke-linejoin="round" stroke-width="2"
    d="m31 12-.89 1.333A6.612 6.612 0 0 0 29 17v12a2 2 0 0 1-4 0V9a2 2 0 0 0-2-2H1.334M29 17h2" />
</svg>
